icon/pk/code-computer.svg

<svg viewBox="0 0 48 48" fill="none" xmlns="http://www.w3.org/2000/svg" height="1em" width="1em">
  <path d="M21 6H9C7.34315 6 6 7.34315 6 9V31C6 32.6569 7.34315 34 9 34H39C40.6569 34 42 32.6569 42 31V21" stroke="black" stroke-width="4" stroke-linecap="round" stroke-linejoin="round"/>
  <path d="M24 34V42" stroke="black" stroke-width="4" stroke-linecap="round" stroke-linejoin="round"/>
  <path d="M32 6L28 10L32 14" stroke="black" stroke-width="4" stroke-linecap="round" stroke-linejoin="round"/>
  <path d="M38 6L42 10L38 14" stroke="black" stroke-width="4" stroke-linecap="round" stroke-linejoin="round"/>
  <path d="M14 42L34 42" stroke="black" stroke-width="4" stroke-linecap="round" stroke-linejoin="round"/>
</svg>

<svg width="48" height="48" fill="none" xmlns="http://www.w3.org/2000/svg"><path d="M21 6H9a3 3 0 0 0-3 3v22a3 3 0 0 0 3 3h30a3 3 0 0 0 3-3V21M24 34v8" stroke="#000" stroke-width="4" stroke-linecap="round" stroke-linejoin="round"/><path d="m32 6-4 4 4 4M38 6l4 4-4 4M14 42h20" stroke="#000" stroke-width="4" stroke-linecap="round" stroke-linejoin="round"/></svg>
